X: 39498
T: Tatter Jack Walsh
R: jig
M: 6/8
K: Dmixolydian
|:fef ded|^cAB =c2 A|dcA GFG|Add efg|
fef ded|^cAB =c2 A|dcA GFG|Ad^c d3:|
|:dfa afd|dfa agf|g2 a ged|=cde gfg|
afd fed|cAB =cde|dcA GFG|Ad^c d3:|

